outputs/icons/maps/train_sharp.svg

<svg xmlns="http://www.w3.org/2000/svg" width="1200" height="1200" fill="none"><g clip-path="url(#a)"><path fill="#000" d="M600 100c-200 0-400 25-400 200v475c0 96.5 78.5 175 175 175l-75 75v25h100l100-100h200l100 100h100v-25l-75-75c96.5 0 175-78.5 175-175V300c0-175-200-200-400-200M375 850c-41.5 0-75-33.5-75-75s33.5-75 75-75 75 33.5 75 75-33.5 75-75 75m175-350H300V300h250zm275 350c-41.5 0-75-33.5-75-75s33.5-75 75-75 75 33.5 75 75-33.5 75-75 75m75-350H650V300h250z"/></g><defs><clipPath id="a"><path fill="#fff" d="M0 0h1200v1200H0z"/></clipPath></defs></svg>

<svg width="1200" height="1200" viewBox="0 0 1200 1200" fill="none" xmlns="http://www.w3.org/2000/svg"><g clip-path="url(#clip0_124_942)"><path d="M600 100C400 100 200 125 200 300V775C200 871.5 278.5 950 375 950L300 1025V1050H400L500 950H700L800 1050H900V1025L825 950C921.5 950 1000 871.5 1000 775V300C1000 125 800 100 600 100ZM375 850C333.5 850 300 816.5 300 775C300 733.5 333.5 700 375 700C416.5 700 450 733.5 450 775C450 816.5 416.5 850 375 850ZM550 500H300V300H550V500ZM825 850C783.5 850 750 816.5 750 775C750 733.5 783.5 700 825 700C866.5 700 900 733.5 900 775C900 816.5 866.5 850 825 850ZM900 500H650V300H900V500Z" fill="#1D1E23"/></g><defs><clipPath id="clip0_124_942"><path width="24" fill="white" d="M0 0H1200V1200H0V0z"/></clipPath></defs></svg>
